icons/w3schools.svg

<?xml version="1.0" encoding="UTF-8" standalone="no"?>
<svg
   xmlns:dc="http://purl.org/dc/elements/1.1/"
   xmlns:cc="http://creativecommons.org/ns#"
   xmlns:rdf="http://www.w3.org/1999/02/22-rdf-syntax-ns#"
   xmlns:svg="http://www.w3.org/2000/svg"
   xmlns="http://www.w3.org/2000/svg"
   xmlns:sodipodi="http://sodipodi.sourceforge.net/DTD/sodipodi-0.dtd"
   xmlns:inkscape="http://www.inkscape.org/namespaces/inkscape"
   id="svg8"
   version="1.1"
   viewBox="0 0 79.374998 79.375002"
   height="300"
   width="300"
   sodipodi:docname="w3schools.svg"
   inkscape:version="0.92.4 (5da689c313, 2019-01-14)">
  <sodipodi:namedview
     pagecolor="#ffffff"
     bordercolor="#666666"
     borderopacity="1"
     objecttolerance="10"
     gridtolerance="10"
     guidetolerance="10"
     inkscape:pageopacity="0"
     inkscape:pageshadow="2"
     inkscape:window-width="1072"
     inkscape:window-height="862"
     id="namedview7"
     showgrid="false"
     borderlayer="true"
     inkscape:showpageshadow="false"
     inkscape:zoom="2.2250293"
     inkscape:cx="197.17199"
     inkscape:cy="182.10517"
     inkscape:window-x="316"
     inkscape:window-y="84"
     inkscape:window-maximized="0"
     inkscape:current-layer="svg8" />
  <defs
     id="defs2" />
  <metadata
     id="metadata5">
    <rdf:RDF>
      <cc:Work
         rdf:about="">
        <dc:format>image/svg+xml</dc:format>
        <dc:type
           rdf:resource="http://purl.org/dc/dcmitype/StillImage" />
        <dc:title></dc:title>
      </cc:Work>
    </rdf:RDF>
  </metadata>
  <g
     transform="matrix(0.67296117,0,0,0.67296117,12.59048,-134.16183)"
     id="layer1">
    <path
       id="path823"
       transform="matrix(0.26458333,0,0,0.26458333,0,217.62499)"
       d="M 236.42773,43.572266 C 202.63629,43.238034 180.2007,63.969281 179.53906,95.712891 l 28.40235,1.242187 c 1.03858,-16.869456 12.36865,-26.031356 28.48632,-26.240234 21.43867,-0.277836 30,13.536111 30,27.857422 0,20.714304 -14.14202,34.285154 -38.42773,34.285154 v 21.42774 c 0,0 39.85742,-4.31166 39.85742,35 0,23.57144 -16.46592,31.34732 -31.42969,32.14257 -14.1861,0.75391 -31.42689,-4.85629 -32.85546,-28.42773 h -26.42969 c 0,0 1.42467,52.71484 55.71484,52.71484 33.57143,0 59.44523,-18.824 59.1931,-55.43673 -0.23611,-34.28759 -16.45382,-44.55739 -27.26696,-47.09656 11.89705,-6.5714 25.40514,-18.92913 25.26344,-45.093034 -0.16216,-29.941228 -17.01784,-54.154225 -53.61927,-54.51625 z M 93.572266,97 c 0,0 -1.42941,43.71344 -33.572266,44.42773 -32.142857,0.7143 -34.285156,-32.85546 -34.285156,-32.85546 H 2.8574219 c 2e-7,44.2857 27.1297221,57.42137 56.4277341,58.57031 36.428576,1.42858 46.429684,-25.71485 46.429684,-25.71485 0,0 5.62633,24.33772 46.42774,25 35.59467,0.57775 52.72037,-29.54937 54.3164,-58.16211 l -27.40625,-1.19726 c -1.25764,16.91674 -6.06865,32.28661 -29.76757,32.93164 -33.559,0.91339 -30.71289,-43 -30.71289,-43 z"
       style="fill:#ffffff;fill-opacity:1;stroke:#000000;stroke-width:0;stroke-linecap:butt;stroke-linejoin:miter;stroke-miterlimit:4;stroke-dasharray:none;stroke-opacity:1"
       inkscape:connector-curvature="0"
       sodipodi:nodetypes="sccssccssccsscsscsccscsccscc" />
  </g>
</svg>

<?xml version="1.0" encoding="UTF-8" standalone="no"?>
<svg
   xmlns:dc="http://purl.org/dc/elements/1.1/"
   xmlns:cc="http://creativecommons.org/ns#"
   xmlns:rdf="http://www.w3.org/1999/02/22-rdf-syntax-ns#"
   xmlns:svg="http://www.w3.org/2000/svg"
   xmlns="http://www.w3.org/2000/svg"
   id="svg8"
   version="1.1"
   viewBox="0 0 79.374998 79.375002"
   height="300"
   width="300">
  <defs
     id="defs2" />
  <metadata
     id="metadata5">
    <rdf:RDF>
      <cc:Work
         rdf:about="">
        <dc:format>image/svg+xml</dc:format>
        <dc:type
           rdf:resource="http://purl.org/dc/dcmitype/StillImage" />
        <dc:title></dc:title>
      </cc:Work>
    </rdf:RDF>
  </metadata>
  <g
     transform="translate(0,-217.62499)"
     id="layer1">
    <path
       id="path823"
       transform="matrix(0.26458333,0,0,0.26458333,0,217.62499)"
       d="M 236.42773 43.572266 C 196.9356 43.572266 180.51466 67.473736 179.74609 87.945312 C 179.6496 90.51544 179.59874 93.117066 179.53906 95.712891 L 207.94141 96.955078 C 208.12553 94.886764 208.25999 92.888384 208.3418 91 C 208.71735 82.331479 218.6122 70.976817 236.42773 70.714844 C 257.86588 70.399601 266.42773 84.250955 266.42773 98.572266 C 266.42773 119.28657 252.28571 132.85742 228 132.85742 L 228 154.28516 C 228 154.28516 267.85742 149.9735 267.85742 189.28516 C 267.85742 212.8566 251.3915 220.63248 236.42773 221.42773 C 222.24163 222.18164 205.00084 216.57144 203.57227 193 L 177.14258 193 C 177.14258 193 178.56725 245.71484 232.85742 245.71484 C 266.42885 245.71484 290.71484 230.89876 290.71484 194.28516 L 290.71484 101.42773 C 292.8577 64.665069 273.03095 43.572266 236.42773 43.572266 z M 93.572266 97 C 93.572266 97 92.142856 140.71344 60 141.42773 C 27.857143 142.14203 25.714844 108.57227 25.714844 108.57227 L 2.8574219 108.57227 C 2.8574221 152.85797 29.987144 165.99364 59.285156 167.14258 C 95.713732 168.57116 105.71484 141.42773 105.71484 141.42773 C 105.71484 141.42773 111.34117 165.76545 152.14258 166.42773 C 187.73725 167.00548 201.79341 134.98942 206.45898 108.26562 L 179.05273 107.06836 C 177.79509 123.9851 172.94164 138.44244 149.28516 140 C 115.71373 140.00004 118.57227 97 118.57227 97 L 93.572266 97 z "
       style="fill:#ffffff;fill-opacity:1;stroke:#000000;stroke-width:0;stroke-linecap:butt;stroke-linejoin:miter;stroke-miterlimit:4;stroke-dasharray:none;stroke-opacity:1" />
  </g>
</svg>
